ix/shopping-bag_bold.svg

<svg viewBox="0 0 24 24" fill="none" xmlns="http://www.w3.org/2000/svg" height="1em" width="1em">
  <path d="M16 8.75C15.59 8.75 15.25 8.41 15.25 8V4.5C15.25 3.42 14.58 2.75 13.5 2.75H10.5C9.42 2.75 8.75 3.42 8.75 4.5V8C8.75 8.41 8.41 8.75 8 8.75C7.59 8.75 7.25 8.41 7.25 8V4.5C7.25 2.59 8.59 1.25 10.5 1.25H13.5C15.41 1.25 16.75 2.59 16.75 4.5V8C16.75 8.41 16.41 8.75 16 8.75Z" fill="#292D32"/>
  <path d="M8.00082 17.78C7.59082 17.78 7.25082 17.44 7.25082 17.03C7.25082 16.61 7.59082 16.28 8.00082 16.28H19.7608C20.0608 16.28 20.2908 16.02 20.2608 15.72L19.5808 10.03C19.3408 8.09 19.0008 6.5 15.6008 6.5H8.40082C5.00082 6.5 4.66082 8.09 4.43082 10.03L3.53082 17.53C3.24082 19.99 4.00082 22 7.51082 22H16.4908C19.6508 22 20.5808 20.37 20.5308 18.25C20.5208 17.98 20.3008 17.78 20.0308 17.78H8.00082Z" fill="#292D32"/>
</svg>

<svg viewBox="0 0 24 24" fill="none" xmlns="http://www.w3.org/2000/svg" height="1em" width="1em">
  <path d="M16 8.75c-.41 0-.75-.34-.75-.75V4.5c0-1.08-.67-1.75-1.75-1.75h-3c-1.08 0-1.75.67-1.75 1.75V8c0 .41-.34.75-.75.75s-.75-.34-.75-.75V4.5c0-1.91 1.34-3.25 3.25-3.25h3c1.91 0 3.25 1.34 3.25 3.25V8c0 .41-.34.75-.75.75Z" fill="#292D32"/>
  <path d="M8 17.78a.749.749 0 1 1 0-1.5h11.76c.3 0 .53-.26.5-.56l-.68-5.69C19.34 8.09 19 6.5 15.6 6.5H8.4c-3.4 0-3.74 1.59-3.97 3.53l-.9 7.5C3.24 19.99 4 22 7.51 22h8.98c3.16 0 4.09-1.63 4.04-3.75a.49.49 0 0 0-.5-.47H8Z" fill="#292D32"/>
</svg>
